icons/1_Primary/NextDNS.svg

<svg width="1024" height="1024" viewBox="0 0 1024 1024" fill="none" xmlns="http://www.w3.org/2000/svg">
<g clip-path="url(#clip0_2_2925)">
<path d="M512 1024C794.77 1024 1024 794.77 1024 512C1024 229.23 794.77 0 512 0C229.23 0 0 229.23 0 512C0 794.77 229.23 1024 512 1024Z" fill="#728DBE"/>
<path d="M506.46 256.48C510.947 255.712 515.546 255.889 519.961 257C524.375 258.111 528.51 260.13 532.1 262.93C540.1 269.28 547.01 276.87 555.4 282.69C582.77 304 616 317.23 650.2 322.33C665.2 325.5 681.25 323.48 695.63 329.58C703.035 332.67 709.662 337.367 715.031 343.329C720.401 349.292 724.38 356.373 726.68 364.06C729.96 373.34 728.96 383.33 729.54 392.99C729.93 424.27 730.7 455.6 728.54 486.85C725.54 531.13 718 575.85 699.42 616.42C683.453 652.051 659.502 683.529 629.42 708.42C602.2 731.03 570.74 748.14 537.85 760.94C530.6 763.4 523.64 767.08 515.91 767.8C510.791 768.319 505.621 767.813 500.7 766.31C469.65 755.53 439.64 741.31 412.7 722.31C383.45 701.99 358.17 675.79 339.7 645.31C325.63 622.51 315.48 597.45 308.48 571.63C297.28 529 294.21 484.81 294 440.93C294.29 419.93 294.16 398.93 295 377.93C295.345 368.771 297.992 359.848 302.697 351.982C307.402 344.117 314.013 337.565 321.92 332.93C326.83 329.82 332.43 328.02 338.02 326.54C350.59 324.38 363.48 324.62 376.02 322.01C414.02 316.19 450.45 299.66 479.28 274.14C487.36 267 495.16 258.1 506.46 256.48Z" fill="white"/>
</g>
<defs>
<clipPath id="clip0_2_2925">
<rect width="1024" height="1024" fill="white"/>
</clipPath>
</defs>
</svg>

<svg width="1024" height="1024" fill="none" xmlns="http://www.w3.org/2000/svg"><g clip-path="url(#a)"><path d="M512 1024c282.77 0 512-229.23 512-512S794.77 0 512 0 0 229.23 0 512s229.23 512 512 512Z" fill="#728DBE"/><path d="M506.46 256.48a32.713 32.713 0 0 1 25.64 6.45c8 6.35 14.91 13.94 23.3 19.76 27.37 21.31 60.6 34.54 94.8 39.64 15 3.17 31.05 1.15 45.43 7.25a54.198 54.198 0 0 1 31.05 34.48c3.28 9.28 2.28 19.27 2.86 28.93.39 31.28 1.16 62.61-1 93.86-3 44.28-10.54 89-29.12 129.57a254.485 254.485 0 0 1-70 92c-27.22 22.61-58.68 39.72-91.57 52.52-7.25 2.46-14.21 6.14-21.94 6.86a38.701 38.701 0 0 1-15.21-1.49c-31.05-10.78-61.06-25-88-44-29.25-20.32-54.53-46.52-73-77-14.07-22.8-24.22-47.86-31.22-73.68-11.2-42.63-14.27-86.82-14.48-130.7.29-21 .16-42 1-63a54.546 54.546 0 0 1 26.92-45c4.91-3.11 10.51-4.91 16.1-6.39 12.57-2.16 25.46-1.92 38-4.53 38-5.82 74.43-22.35 103.26-47.87 8.08-7.14 15.88-16.04 27.18-17.66Z" fill="#fff"/></g><defs><clipPath id="a"><path fill="#fff" d="M0 0h1024v1024H0z"/></clipPath></defs></svg>
